X: 6403
T: Castle O'Neil
R: waltz
M: 3/4
K: Dmajor
(g>f)|(e2d2) (e>f)|g4 (f>g)|.a2 (f>a)(g>f)|T(e2d2) .d2|.d4 z2|
~d2 (e>f) a2|b4 (ab)|.a2 e>def|g2g2g2|g4||
(g>f)|T(e2d2).d2|.d4 (e/f/).a|b4 (a>b)|a2 Te2 {=de}g2|g4 (g>f)|
(e2d2) (e>f)|g4 (f>g)|a2 (f>a)(g>f)|T(e2d2).d2|d4||

